X: 14097
T: Fridays For Future
R: jig
M: 6/8
K: Amixolydian
|:eAA GAE|ccc cBA|GGG GFG|GAB deg|
eAA GAA|ccc cBA|GGG GFG|GAB deg:|
|:eaa age|ggg ged|ded cAG|GAB deg:|
aAA geg|gag ede|ddd cAG|GAB deg|
aAA gAA|ege ede|ddd cAG|GAB deg|

